X: 1
T: Money Musk
C: Daniel Dow c.1776
R: reel
S: https://natunelist.net/moneymusk/ 2021-6-10
Z: 2021 John Chambers <jc:trillian.mit.edu>
M: C|
L: 1/8
K: A
|: f | eAcA eAdf | eAcA Bcdf | eAcA cdea |1 fdBe cAA :|2 fdBd cAA ||
|: g | aefa eaca | aedb caBg | aefa eaca |1 fdBd cAA :|2 fdBe cAA ||
|: ((3efg) | acea e'aba | gBeg befg | acea c'aba | gfdB A :| 
|: ((3efg) | ac'ea c'ee'e | gbeg bee'e | ac'ea bee'e | gbeg a :|| 
